X:1
T:Title
%%score { ( 1 4 ) | ( 2 3 ) }
L:1/8
M:6/8
K:Bb
V:1 treble nm="Grand Piano"
V:4 treble 
V:2 bass 
V:3 bass 
V:1
 z3 z2[Q:1/4=78] [B,D]/E/ | [DF][_D=E][=DF] [Fd][_Ec][DB] | [EG][DF][_D=E] [=DF]2 [DF]/G/ | %3
 FED E2 G |[M:5/8] [EG][DF][_D=E] [=DF]2 |[M:1/8] D/E/ |[M:3/4] [DF][_D=E] [=DF][Fd] [Fc][FB] | %7
 [GB][Gc] [GB] [EG]2 [GB] |[M:13/16] [Gc][GB][EG][DF][DB]3/2[Ge] |[M:3/4] dB c [DB]3 | %10
[M:1/8] [DF] |[M:3/4] d4 z2 | c4 z2 | e4 z2 |[M:5/8] d-d- d3 |[M:1/8] [DF]/[DF]/ |[M:3/4] B4 z2 | %17
[M:7/8] z EE [Ge]3 [Ge] |[M:3/4] dc Bd dc |[M:5/8] B-B- B3 |] %20
V:2
 z3 z z z/ C/ | [B,,B,][B,,B,][B,,B,] [B,,B,][B,,B,][B,,B,] | %2
 [B,,B,][B,,B,][B,,B,] [B,,B,]2 z/ E/ | [F,B,D][F,A,C][F,B,] [F,A,C]2 [F,A,E] | %4
[M:5/8] [B,,B,][B,,B,][B,,B,] [B,,B,]2 |[M:1/8] B,/C/ | %6
[M:3/4] [B,,B,][B,,B,] [B,,B,][B,,B,] [C,A,][D,B,] | [E,B,][E,B,] [E,B,] [E,B,]2 [E,B,] | %8
[M:13/16] [E,B,][E,B,][E,B,][B,,B,][B,,B,]3/2[B,,B,] |[M:3/4] [F,B,F][F,B,D] [F,A,E] [B,,B,]3 | %10
[M:1/8] [B,,B,] |[M:3/4] [B,,B,][B,,B,] [B,,B,][B,,B,] [C,A,][D,B,] | %12
 [F,A,F][F,A,] [F,A,] [F,A,F]2 [F,A,] | [F,C][F,C] [F,C][F,C] [F,B,][F,A,] | %14
[M:5/8] [B,,B,][B,,B,][B,,B,] [B,,B,]2 |[M:1/8] [B,,B,]/[B,,B,]/ | %16
[M:3/4] [B,,B,][B,,B,] [B,,B,][B,,B,] [C,F,][D,B,] |[M:7/8] [E,B,E][E,B,][E,B,] [E,B,]3 [E,B,] | %18
[M:3/4] [F,B,F][F,A,E] [F,B,D][F,B,F] [F,B,F][F,A,E] |[M:5/8] [B,,B,][B,,F,][B,,G,] [B,,F,]2 |] %20
V:3
 z3 z2 B,, | x6 | z3 z2 [B,,B,] | x6 |[M:5/8] x5 |[M:1/8] B,, |[M:3/4] x6 | x6 |[M:13/16] x13/2 | %9
[M:3/4] x6 |[M:1/8] x |[M:3/4] x6 | x6 | x6 |[M:5/8] x5 |[M:1/8] x |[M:3/4] x6 |[M:7/8] x7 | %18
[M:3/4] x6 |[M:5/8] x5 |] %20
V:4
 x6 | x6 | x6 | x6 |[M:5/8] x5 |[M:1/8] x |[M:3/4] x6 | x6 |[M:13/16] x13/2 |[M:3/4] x6 | %10
[M:1/8] x |[M:3/4] FF FF [Fc][FB] | z F F c2 F | AA AA [Bd][Fc] |[M:5/8] FFF F2 |[M:1/8] x | %16
[M:3/4] DD DD [EA][FB] |[M:7/8] G3 z z z2 |[M:3/4] x6 |[M:5/8] DDE D2 |] %20

